app/assets/images/comment-icon.svg

<svg width="24" height="22" viewBox="0 0 24 22" fill="none" xmlns="http://www.w3.org/2000/svg">
<path d="M11.997 0.00226802C14.5144 0.00226802 17.0319 0.00226802 19.5553 0.00226802C20.4063 -0.0257561 21.2461 0.20643 21.9671 0.669084C22.6881 1.13174 23.2576 1.8038 23.6025 2.59917C23.8653 3.13157 24.0015 3.7198 24 4.31608C24 7.33145 24 10.353 24 13.3683C23.9639 14.3877 23.5847 15.3632 22.9264 16.1301C22.268 16.8969 21.3709 17.4082 20.3864 17.5775C20.0781 17.6319 19.7658 17.6587 19.4529 17.6575H15.6226C15.5605 17.6525 15.4984 17.6661 15.4438 17.6968C15.3892 17.7274 15.3446 17.7736 15.3154 17.8298C14.6048 18.9867 13.8821 20.1437 13.1654 21.3006C13.0517 21.5123 12.8843 21.689 12.6809 21.812C12.4775 21.9351 12.2454 22 12.009 22C11.7726 22 11.5406 21.9351 11.3372 21.812C11.1337 21.689 10.9664 21.5123 10.8527 21.3006C10.13 20.1437 9.40125 18.9806 8.68456 17.8175C8.65539 17.7613 8.61077 17.7151 8.55619 17.6845C8.50162 17.6538 8.43947 17.6402 8.37741 17.6452H4.46273C3.51772 17.6686 2.59086 17.3776 1.82179 16.8159C1.05272 16.2543 0.4831 15.4525 0.198745 14.5314C0.0795687 14.1319 0.0127384 13.7181 -8.04101e-08 13.3006C-8.04101e-08 10.3427 -8.04101e-08 7.38478 -8.04101e-08 4.42685C0.0148394 3.40015 0.376771 2.4103 1.02441 1.62517C1.67205 0.840039 2.56553 0.307967 3.55332 0.119191C3.87579 0.0647982 4.20215 0.0380385 4.52898 0.0391911L11.997 0.00226802ZM11.997 19.8421L12.1235 19.6514C12.7859 18.5867 13.4605 17.5283 14.0928 16.4514C14.1952 16.2678 14.3461 16.1173 14.5282 16.0172C14.7103 15.9171 14.9163 15.8714 15.1227 15.8852C16.5621 15.8852 18.0075 15.8852 19.4469 15.8852C19.8178 15.899 20.1875 15.8345 20.5329 15.696C20.8784 15.5574 21.1922 15.3477 21.4549 15.0799C21.7176 14.812 21.9235 14.4918 22.0599 14.1391C22.1962 13.7864 22.2601 13.4088 22.2474 13.0299C22.2474 10.236 22.2474 7.44221 22.2474 4.65454C22.2497 4.36406 22.2153 4.07448 22.145 3.79301C21.9935 3.20613 21.6509 2.68948 21.1736 2.32817C20.6963 1.96687 20.1128 1.78246 19.5192 1.80533H4.28206C3.61884 1.82519 2.98784 2.10202 2.517 2.57969C2.04616 3.05736 1.77072 3.70012 1.74655 4.37762C1.74655 7.30683 1.74655 10.236 1.74655 13.1652C1.73734 13.8264 1.97412 14.4664 2.40903 14.956C2.67211 15.2627 2.99907 15.5054 3.3659 15.6662C3.73274 15.827 4.13015 15.9018 4.52898 15.8852H8.91944C9.11406 15.8709 9.30857 15.9145 9.47954 16.0105C9.65051 16.1066 9.79064 16.2512 9.88306 16.4268C10.1842 16.9375 10.4853 17.436 10.8105 17.9344L11.997 19.8421Z" fill="#005B9A"/>
</svg>

<svg width="24" height="22" fill="none" xmlns="http://www.w3.org/2000/svg"><path d="M11.997.002h7.558a4.207 4.207 0 0 1 2.412.667 4.343 4.343 0 0 1 1.636 1.93c.262.533.398 1.12.397 1.717v9.052a4.485 4.485 0 0 1-1.074 2.762 4.313 4.313 0 0 1-2.54 1.448c-.308.054-.62.08-.933.08h-3.83a.323.323 0 0 0-.307.172c-.711 1.157-1.434 2.314-2.15 3.47a1.335 1.335 0 0 1-.485.512 1.297 1.297 0 0 1-1.344 0c-.203-.123-.37-.3-.484-.511-.723-1.157-1.452-2.32-2.168-3.483a.323.323 0 0 0-.308-.173H4.463a4.295 4.295 0 0 1-2.641-.83 4.452 4.452 0 0 1-1.623-2.284A4.82 4.82 0 0 1 0 13.301V4.427a4.507 4.507 0 0 1 1.024-2.802A4.336 4.336 0 0 1 3.554.12c.322-.054.648-.081.975-.08l7.468-.037zm0 19.84l.127-.19c.662-1.065 1.336-2.124 1.969-3.2.102-.184.253-.335.435-.435.182-.1.388-.146.595-.132h4.324c.37.014.74-.05 1.086-.189a2.7 2.7 0 0 0 .922-.616 2.77 2.77 0 0 0 .605-.94c.136-.354.2-.731.187-1.11V4.655c.003-.29-.032-.58-.102-.862a2.674 2.674 0 0 0-.971-1.465 2.575 2.575 0 0 0-1.655-.523H4.282a2.587 2.587 0 0 0-1.765.775 2.698 2.698 0 0 0-.77 1.798v8.787c-.01.661.227 1.301.662 1.791.263.307.59.55.957.71.367.161.764.236 1.163.22h4.39c.195-.015.39.029.56.125.172.096.312.24.404.416.301.51.602 1.009.928 1.507l1.186 1.908z" fill="#005B9A"/></svg>
